X:110
T:Out on the Ocean
M:6/8
L:1/8
Q:120
S:THSP
R:jig
Z:
Z:id:hn-jig-24
K:G
"G"D2B BAG|"C"BdB A2B|"G"GED G2A|"D"~B3 AGE|
"G"D2B BAG|"C"BdB A2B|"G"GED G2A|1 "D"BGF "G"G2E:|2 "D"BGF "G"GBd||
"Em"e2e edB|efe edB|"D"d2d dBA|ded dBA|
"G"G2A B2d|"C"ege dBA|"G"GED G2A|"D"BGF "G"GBd|
"Em"e2e edB|efe edB|"D"d2d def|gfe dBA|
"G"G2A B2d|"C"ege dBA|"G"GED G2A|"D"BGF "G"G2E|]
